X:406
T: "Der Schaefersohn"
N: Z1086
O: Europa, Mitteleuropa, Deutschland, Niederrhein
R: Romanze, Ballade
M: 6/8
L: 1/8
K: G
D | G2GGA_B | AAGF2z |
FAcc_Bc | _B2AG2
G | c2GG2=F | =F2_ED3 |
EDCD3 | _EDCD3 |
G2FGGD | _E2DG2

@@@ Tune index: 10164
